source/work/images/artifact_designguidelines.svg

<svg xmlns="http://www.w3.org/2000/svg" width="64" height="64" viewBox="0 0 64 64"><style type="text/css">.frame{fill:#FFFFFF;} .content{opacity:0.5;fill:#FFFFFF;}</style><path class="content" d="M30 37.5c0 .276-.224.5-.5.5h-22c-.276 0-.5-.224-.5-.5s.224-.5.5-.5h22c.276 0 .5.224.5.5zm-.5 2.5h-22c-.276 0-.5.224-.5.5s.224.5.5.5h22c.276 0 .5-.224.5-.5s-.224-.5-.5-.5zm0 3h-22c-.276 0-.5.224-.5.5s.224.5.5.5h22c.276 0 .5-.224.5-.5s-.224-.5-.5-.5zm-4 3h-18c-.276 0-.5.224-.5.5s.224.5.5.5h18c.276 0 .5-.224.5-.5s-.224-.5-.5-.5zm30-9h-22c-.276 0-.5.224-.5.5s.224.5.5.5h22c.276 0 .5-.224.5-.5s-.224-.5-.5-.5zm0 3h-22c-.276 0-.5.224-.5.5s.224.5.5.5h22c.276 0 .5-.224.5-.5s-.224-.5-.5-.5zm0 3h-22c-.276 0-.5.224-.5.5s.224.5.5.5h22c.276 0 .5-.224.5-.5s-.224-.5-.5-.5zm-4 3h-18c-.276 0-.5.224-.5.5s.224.5.5.5h18c.276 0 .5-.224.5-.5s-.224-.5-.5-.5zm-44.5-28v-6c0-1.105.895-2 2-2h6c1.105 0 2 .895 2 2v6c0 1.105-.895 2-2 2h-6c-1.105 0-2-.895-2-2zm1.049.244l3.244-3.244-3.244-3.244-.049.244v6l.049.244zm6.951.756l.244-.049-3.244-3.244-3.244 3.244.244.049h6zm-2.293-4l3.244 3.244.049-.244v-6l-.049-.244-3.244 3.244zm-3.707-4l-.244.049 3.244 3.244 3.244-3.244-.244-.049h-6zm21 1v6c0 1.105-.895 2-2 2h-6c-1.105 0-2-.895-2-2v-6c0-1.105.895-2 2-2h6c1.105 0 2 .895 2 2zm-1.049-.244l-3.244 3.244 3.244 3.244.049-.244v-6l-.049-.244zm-6.951-.756l-.244.049 3.244 3.244 3.244-3.244-.244-.049h-6zm2.293 4l-3.244-3.244-.049.244v6l.049.244 3.244-3.244zm3.707 4l.244-.049-3.244-3.244-3.244 3.244.244.049h6zm-21 12v-6c0-1.105.895-2 2-2h6c1.105 0 2 .895 2 2v6c0 1.105-.895 2-2 2h-6c-1.105 0-2-.895-2-2zm1.049.244l3.244-3.244-3.244-3.244-.049.244v6l.049.244zm6.951.756l.244-.049-3.244-3.244-3.244 3.244.244.049h6zm-2.293-4l3.244 3.244.049-.244v-6l-.049-.244-3.244 3.244zm-3.707-4l-.244.049 3.244 3.244 3.244-3.244-.244-.049h-6zm21 1v6c0 1.105-.895 2-2 2h-6c-1.105 0-2-.895-2-2v-6c0-1.105.895-2 2-2h6c1.105 0 2 .895 2 2zm-1.049-.244l-3.244 3.244 3.244 3.244.049-.244v-6l-.049-.244zm-6.951-.756l-.244.049 3.244 3.244 3.244-3.244-.244-.049h-6zm2.293 4l-3.244-3.244-.049.244v6l.049.244 3.244-3.244zm3.707 4l.244-.049-3.244-3.244-3.244 3.244.244.049h6zm5-14v-6c0-1.105.895-2 2-2h6c1.105 0 2 .895 2 2v6c0 1.105-.895 2-2 2h-6c-1.105 0-2-.895-2-2zm1.049.244l3.244-3.244-3.244-3.244-.049.244v6l.049.244zm6.951.756l.244-.049-3.244-3.244-3.244 3.244.244.049h6zm-2.293-4l3.244 3.244.049-.244v-6l-.049-.244-3.244 3.244zm-3.707-4l-.244.049 3.244 3.244 3.244-3.244-.244-.049h-6zm-2 20v-6c0-1.105.895-2 2-2h6c1.105 0 2 .895 2 2v6c0 1.105-.895 2-2 2h-6c-1.105 0-2-.895-2-2zm1.049.244l3.244-3.244-3.244-3.244-.049.244v6l.049.244zm6.951.756l.244-.049-3.244-3.244-3.244 3.244.244.049h6zm-2.293-4l3.244 3.244.049-.244v-6l-.049-.244-3.244 3.244zm-3.707-4l-.244.049 3.244 3.244 3.244-3.244-.244-.049h-6zm21-12v6c0 1.105-.895 2-2 2h-6c-1.105 0-2-.895-2-2v-6c0-1.105.895-2 2-2h6c1.105 0 2 .895 2 2zm-1.049-.244l-3.244 3.244 3.244 3.244.049-.244v-6l-.049-.244zm-6.951-.756l-.244.049 3.244 3.244 3.244-3.244-.244-.049h-6zm2.293 4l-3.244-3.244-.049.244v6l.049.244 3.244-3.244zm3.707 4l.244-.049-3.244-3.244-3.244 3.244.244.049h6zm2 6v6c0 1.105-.895 2-2 2h-6c-1.105 0-2-.895-2-2v-6c0-1.105.895-2 2-2h6c1.105 0 2 .895 2 2zm-1.049-.244l-3.244 3.244 3.244 3.244.049-.244v-6l-.049-.244zm-6.951-.756l-.244.049 3.244 3.244 3.244-3.244-.244-.049h-6zm2.293 4l-3.244-3.244-.049.244v6l.049.244 3.244-3.244zm3.707 4l.244-.049-3.244-3.244-3.244 3.244.244.049h6z"/><path class="frame" d="M60 4h-56c-1.657 0-3 1.343-3 3v49.9c0 1.657 1.343 3 3 3h56c1.657 0 3-1.343 3-3v-49.9c0-1.657-1.343-3-3-3zm-58 3c0-1.103.897-2 2-2h56c1.103 0 2 .897 2 2v43.9c0 1.103-.897 2-2 2h-56c-1.103 0-2-.897-2-2v-43.9zm0 46.121c.532.479 1.228.779 2 .779h56c.772 0 1.468-.3 2-.779v.779c0 1.103-.897 2-2 2h-56c-1.103 0-2-.897-2-2v-.779zm58 5.779h-56c-1.103 0-2-.897-2-2v-.779c.532.479 1.228.779 2 .779h56c.772 0 1.468-.3 2-.779v.779c0 1.103-.897 2-2 2z"/></svg>

<?xml version="1.0" encoding="utf-8"?>
<!-- Generator: Adobe Illustrator 22.0.1, SVG Export Plug-In . SVG Version: 6.00 Build 0)  -->
<svg version="1.1" id="icons" xmlns="http://www.w3.org/2000/svg" xmlns:xlink="http://www.w3.org/1999/xlink" x="0px" y="0px"
	 width="64px" height="64px" viewBox="0 0 64 64" style="enable-background:new 0 0 64 64;" xml:space="preserve">
<style type="text/css">
	.frame{fill:#FFFFFF;}
	.content{opacity:0.5;fill:#FFFFFF;}
</style>
<path class="content" d="M30,37.5c0,0.276-0.224,0.5-0.5,0.5h-22C7.224,38,7,37.776,7,37.5S7.224,37,7.5,37h22
	C29.776,37,30,37.224,30,37.5z M29.5,40h-22C7.224,40,7,40.224,7,40.5S7.224,41,7.5,41h22c0.276,0,0.5-0.224,0.5-0.5
	S29.776,40,29.5,40z M29.5,43h-22C7.224,43,7,43.224,7,43.5S7.224,44,7.5,44h22c0.276,0,0.5-0.224,0.5-0.5S29.776,43,29.5,43z
	 M25.5,46h-18C7.224,46,7,46.224,7,46.5S7.224,47,7.5,47h18c0.276,0,0.5-0.224,0.5-0.5S25.776,46,25.5,46z M55.5,37h-22
	c-0.276,0-0.5,0.224-0.5,0.5s0.224,0.5,0.5,0.5h22c0.276,0,0.5-0.224,0.5-0.5S55.776,37,55.5,37z M55.5,40h-22
	c-0.276,0-0.5,0.224-0.5,0.5s0.224,0.5,0.5,0.5h22c0.276,0,0.5-0.224,0.5-0.5S55.776,40,55.5,40z M55.5,43h-22
	c-0.276,0-0.5,0.224-0.5,0.5s0.224,0.5,0.5,0.5h22c0.276,0,0.5-0.224,0.5-0.5S55.776,43,55.5,43z M51.5,46h-18
	c-0.276,0-0.5,0.224-0.5,0.5s0.224,0.5,0.5,0.5h18c0.276,0,0.5-0.224,0.5-0.5S51.776,46,51.5,46z M7,18v-6c0-1.105,0.895-2,2-2h6
	c1.105,0,2,0.895,2,2v6c0,1.105-0.895,2-2,2H9C7.895,20,7,19.105,7,18z M8.049,18.244L11.293,15l-3.244-3.244
	C8.029,11.836,8,11.914,8,12v6C8,18.086,8.029,18.164,8.049,18.244z M15,19c0.086,0,0.164-0.029,0.244-0.049L12,15.707l-3.244,3.244
	C8.836,18.971,8.914,19,9,19H15z M12.707,15l3.244,3.244C15.971,18.164,16,18.086,16,18v-6c0-0.086-0.029-0.164-0.049-0.244
	L12.707,15z M9,11c-0.086,0-0.164,0.029-0.244,0.049L12,14.293l3.244-3.244C15.164,11.029,15.086,11,15,11H9z M30,12v6
	c0,1.105-0.895,2-2,2h-6c-1.105,0-2-0.895-2-2v-6c0-1.105,0.895-2,2-2h6C29.105,10,30,10.895,30,12z M28.951,11.756L25.707,15
	l3.244,3.244C28.971,18.164,29,18.086,29,18v-6C29,11.914,28.971,11.836,28.951,11.756z M22,11c-0.086,0-0.164,0.029-0.244,0.049
	L25,14.293l3.244-3.244C28.164,11.029,28.086,11,28,11H22z M24.293,15l-3.244-3.244C21.029,11.836,21,11.914,21,12v6
	c0,0.086,0.029,0.164,0.049,0.244L24.293,15z M28,19c0.086,0,0.164-0.029,0.244-0.049L25,15.707l-3.244,3.244
	C21.836,18.971,21.914,19,22,19H28z M7,31v-6c0-1.105,0.895-2,2-2h6c1.105,0,2,0.895,2,2v6c0,1.105-0.895,2-2,2H9
	C7.895,33,7,32.105,7,31z M8.049,31.244L11.293,28l-3.244-3.244C8.029,24.836,8,24.914,8,25v6C8,31.086,8.029,31.164,8.049,31.244z
	 M15,32c0.086,0,0.164-0.029,0.244-0.049L12,28.707l-3.244,3.244C8.836,31.971,8.914,32,9,32H15z M12.707,28l3.244,3.244
	C15.971,31.164,16,31.086,16,31v-6c0-0.086-0.029-0.164-0.049-0.244L12.707,28z M9,24c-0.086,0-0.164,0.029-0.244,0.049L12,27.293
	l3.244-3.244C15.164,24.029,15.086,24,15,24H9z M30,25v6c0,1.105-0.895,2-2,2h-6c-1.105,0-2-0.895-2-2v-6c0-1.105,0.895-2,2-2h6
	C29.105,23,30,23.895,30,25z M28.951,24.756L25.707,28l3.244,3.244C28.971,31.164,29,31.086,29,31v-6
	C29,24.914,28.971,24.836,28.951,24.756z M22,24c-0.086,0-0.164,0.029-0.244,0.049L25,27.293l3.244-3.244
	C28.164,24.029,28.086,24,28,24H22z M24.293,28l-3.244-3.244C21.029,24.836,21,24.914,21,25v6c0,0.086,0.029,0.164,0.049,0.244
	L24.293,28z M28,32c0.086,0,0.164-0.029,0.244-0.049L25,28.707l-3.244,3.244C21.836,31.971,21.914,32,22,32H28z M33,18v-6
	c0-1.105,0.895-2,2-2h6c1.105,0,2,0.895,2,2v6c0,1.105-0.895,2-2,2h-6C33.895,20,33,19.105,33,18z M34.049,18.244L37.293,15
	l-3.244-3.244C34.029,11.836,34,11.914,34,12v6C34,18.086,34.029,18.164,34.049,18.244z M41,19c0.086,0,0.164-0.029,0.244-0.049
	L38,15.707l-3.244,3.244C34.836,18.971,34.914,19,35,19H41z M38.707,15l3.244,3.244C41.971,18.164,42,18.086,42,18v-6
	c0-0.086-0.029-0.164-0.049-0.244L38.707,15z M35,11c-0.086,0-0.164,0.029-0.244,0.049L38,14.293l3.244-3.244
	C41.164,11.029,41.086,11,41,11H35z M33,31v-6c0-1.105,0.895-2,2-2h6c1.105,0,2,0.895,2,2v6c0,1.105-0.895,2-2,2h-6
	C33.895,33,33,32.105,33,31z M34.049,31.244L37.293,28l-3.244-3.244C34.029,24.836,34,24.914,34,25v6
	C34,31.086,34.029,31.164,34.049,31.244z M41,32c0.086,0,0.164-0.029,0.244-0.049L38,28.707l-3.244,3.244
	C34.836,31.971,34.914,32,35,32H41z M38.707,28l3.244,3.244C41.971,31.164,42,31.086,42,31v-6c0-0.086-0.029-0.164-0.049-0.244
	L38.707,28z M35,24c-0.086,0-0.164,0.029-0.244,0.049L38,27.293l3.244-3.244C41.164,24.029,41.086,24,41,24H35z M56,12v6
	c0,1.105-0.895,2-2,2h-6c-1.105,0-2-0.895-2-2v-6c0-1.105,0.895-2,2-2h6C55.105,10,56,10.895,56,12z M54.951,11.756L51.707,15
	l3.244,3.244C54.971,18.164,55,18.086,55,18v-6C55,11.914,54.971,11.836,54.951,11.756z M48,11c-0.086,0-0.164,0.029-0.244,0.049
	L51,14.293l3.244-3.244C54.164,11.029,54.086,11,54,11H48z M50.293,15l-3.244-3.244C47.029,11.836,47,11.914,47,12v6
	c0,0.086,0.029,0.164,0.049,0.244L50.293,15z M54,19c0.086,0,0.164-0.029,0.244-0.049L51,15.707l-3.244,3.244
	C47.836,18.971,47.914,19,48,19H54z M56,25v6c0,1.105-0.895,2-2,2h-6c-1.105,0-2-0.895-2-2v-6c0-1.105,0.895-2,2-2h6
	C55.105,23,56,23.895,56,25z M54.951,24.756L51.707,28l3.244,3.244C54.971,31.164,55,31.086,55,31v-6
	C55,24.914,54.971,24.836,54.951,24.756z M48,24c-0.086,0-0.164,0.029-0.244,0.049L51,27.293l3.244-3.244
	C54.164,24.029,54.086,24,54,24H48z M50.293,28l-3.244-3.244C47.029,24.836,47,24.914,47,25v6c0,0.086,0.029,0.164,0.049,0.244
	L50.293,28z M54,32c0.086,0,0.164-0.029,0.244-0.049L51,28.707l-3.244,3.244C47.836,31.971,47.914,32,48,32H54z"/>
<path class="frame" d="M60,4H4C2.343,4,1,5.343,1,7v43.375V50.9v2.475V53.9v3c0,1.657,1.343,3,3,3h56c1.657,0,3-1.343,3-3v-3v-0.525
	V50.9v-0.525V7C63,5.343,61.657,4,60,4z M2,7c0-1.103,0.897-2,2-2h56c1.103,0,2,0.897,2,2v43.9c0,1.103-0.897,2-2,2H4
	c-1.103,0-2-0.897-2-2V7z M2,53.121C2.532,53.6,3.228,53.9,4,53.9h56c0.772,0,1.468-0.3,2-0.779V53.9c0,1.103-0.897,2-2,2H4
	c-1.103,0-2-0.897-2-2V53.121z M60,58.9H4c-1.103,0-2-0.897-2-2v-0.779C2.532,56.6,3.228,56.9,4,56.9h56c0.772,0,1.468-0.3,2-0.779
	V56.9C62,58.003,61.103,58.9,60,58.9z"/>
</svg>
